Breeze Round Light/actions/22/mail-flag.svg

<svg xmlns="http://www.w3.org/2000/svg" viewBox="0 0 22 22">
  <defs id="defs3051">
<style type="text/css" id="current-color-scheme">.ColorScheme-Text {color:#fcfcfc;}</style>
  </defs>
 <path 
    style="fill:currentColor;fill-opacity:1;stroke:none" 
    d="m 1,5 c 0,2 0,7 0,7 0,0 0,3 0,5 0,2 2,2 2,2 h 5 6 V 18 H 8 2 v -0.585938 l 0.4628906,-0.46289 6.2675782,-6.267578 1.4531252,1.451172 0.814453,0.814453 H 11 L 11.816406,12.134766 13.269531,10.683594 14.585938,12 H 16 L 13.976562,9.9765625 19.728516,4.2226562 19.951172,4 H 20 V 4.2226562 12 h 1 V 5 C 21,5 21,3 19,3 17,3 3,3 3,3 3,3 1,3 1,5 Z M 2,4 h 0.048828 L 2.2714844,4.2226562 8.0234375,9.9765625 2,16 V 12 4.2226562 Z M 3.4628906,4 H 18.537109 L 11,11.537109 Z M 15,13 v 6 h 1 v -2 l 2,-1 v 2 l 4,-2 -4,-1 v -1 l -2,-1 z"
    class="ColorScheme-Text"
    />  
</svg>

<svg xmlns="http://www.w3.org/2000/svg" viewBox="0 0 22 22">
  <defs id="defs3051">
    <style type="text/css" id="current-color-scheme">
      .ColorScheme-Text {
        color:#232629;
      }
      </style>
  </defs>
 <path 
    style="fill:currentColor;fill-opacity:1;stroke:none" 
    d="M 1 3 L 1 4 L 1 12 L 1 18 L 1 18.414062 L 1 19 L 2 19 L 8 19 L 14 19 L 14 18 L 8 18 L 2 18 L 2 17.414062 L 2.4628906 16.951172 L 8.7304688 10.683594 L 10.183594 12.134766 L 10.998047 12.949219 L 11 12.949219 L 11.816406 12.134766 L 13.269531 10.683594 L 14.585938 12 L 16 12 L 13.976562 9.9765625 L 19.728516 4.2226562 L 19.951172 4 L 20 4 L 20 4.2226562 L 20 12 L 21 12 L 21 3 L 20.951172 3 L 20 3 L 19.537109 3 L 2.4628906 3 L 2 3 L 1 3 z M 2 4 L 2.0488281 4 L 2.2714844 4.2226562 L 8.0234375 9.9765625 L 2 16 L 2 12 L 2 4.2226562 L 2 4 z M 3.4628906 4 L 18.537109 4 L 11 11.537109 L 3.4628906 4 z M 15 13 L 15 19 L 16 19 L 16 17 L 18 16 L 18 18 L 22 16 L 18 15 L 18 14 L 16 13 L 15 13 z "
    class="ColorScheme-Text"
    />  
</svg>
